X: 1
T: More \vCi\vca Re\vce da me \vZeni
O: Bulgaria
F: http://www.youtube.com/watch?v=JCuEvko6YBc
F: http://www.youtube.com/watch?v=FyS1x_2MfhU
F: http://www.youtube.com/watch?v=FFNdkZ0N4V0
Z: 2016 John Chambers <jc:trillian.mit.edu> (based on Seymour Shlien's transcription)
M: 5/16
L: 1/16
%Q: 1/4=192
K: Em
|:\
"Em"EB, GFE | "D"FD "Em"E2B, | EB, GFE | "D"FD "Em"E2B, |\
    EB, GFE | "D"FG     AB2  | AG  GFE |    FD "Em"E3 :|
[|\
"G"G2 GA2 | B2 B3 | B2 B3 | A2 G3 |\
"Am"G2 F2G | A2 E3 | E2 E3 | "Em"E2 E3 |]
|:\
"D"D2 D3 | "Em"E2 E3 | E2 E2F | "G"G2 G3 |\
"G"GA B2A | "Em"GF E3 | "Am"A2 E3 | "Em"E2 E3 :|
